X:34
T:Balleydesmond No. 2
N:Double-dotted chords in broken-rhythm beams.
N:Concertina arrangement
N:Key written as "G maj".
M:2/4
L:1/8
R:Polka
K:G maj
|:EA [EA]B|[Ec]d[G2e2]|G>F GA|GE ED|EA [EA]B|[Ec]d [Ge]>>f|
[Bg]e [fd]B|[E2A2][E2A2]::[ea]>>g ab|[ea]g ef|
[Bg]>>f ga|[Bg]e ed|[ce]a ab| [ea]g ef|[Bg]e [Fd]B|[E2A2][E2A2]:|


